X:1
T:Title
%%score { ( 1 4 ) | ( 2 3 ) }
L:1/8
M:4/8
K:Eb
V:1 treble nm="Grand Piano"
V:4 treble 
V:2 bass 
V:3 bass 
V:1
 z2 z[Q:1/4=80] [EG]/[FA]/ | [GB][GB]/[Ac]/[GB][EG] | [FA] [DF]2 [DF]/[EG]/ | %3
 [FA][FA]/[GB]/[FA][DF] | [EG]3 [GB] | c>=Bc[Ad] | [Ge][GB][GB][EG] | [GB][FA]/G/[B,FA][A,DF] | %8
[M:3/8] [G,E]3 |[M:1/8] [B,D]/E/ |[M:2/4] [DF]>[DF] [DF]/G/[FA]/c/ | [Ac] [GB]2 [GB] | %12
 dc/B/ =A/B/[EFc] | [DFB]3 [EG]/[FA]/ | [GB][Ae] [Ge][Bd]/[Ac]/ | [GB][Ac] [GB]G | FB =A/B/c | %17
[M:3/8] [DB]3 |[M:1/8] [EG]/[FA]/ |[M:2/4] [GB][GB]/[Ac]/ [GB][EG] | [FA] [DF]2 [DF]/[EG]/ | %21
 [FA][FA]/[GB]/ [FA][DF] | [EG]3 [GB] | c>=B c[Ad] | [Ge][GB] [GB][EG] | [GB][FA]/G/ [B,FA][A,DF] | %26
[M:11/8] [G,E]3 z z z z z z z2 |] %27
V:2
 z2 z [E,B,] | [E,B,][E,E][E,E][E,B,] | [B,,B,] [B,,B,]2 [B,,B,] | [B,,B,][B,,B,][B,,B,][B,,B,] | %4
 [E,B,]3 [E,E] | [A,EA]>[A,DA][A,EA][K:bass][F,B,] | [E,B,][E,E][E,E][E,B,] | %7
 [B,,B,] z/ =E/B,,B,, |[M:3/8] E,3 |[M:1/8] z/ C/ |[M:2/4] [B,,B,]>[B,,B,] z/ .EA/ | %11
 [E,E] [E,E]2 [E,B,] | z .E .C2 | B,,3 [E,B,] | [E,B,][E,C] [E,B,][E,E] | [E,E][E,E] [E,E][E,B,E] | %16
 z2 .C2 |[M:3/8] [B,,F,]3 |[M:1/8] [E,B,] |[M:2/4] [E,B,][E,E] [E,E][E,B,] | %20
 [B,,B,] [B,,B,]2 [B,,B,] | [B,,B,][B,,B,] [B,,B,][B,,B,] | [E,B,]3 [E,E] | %23
 [A,EA]>[A,DA] [A,EA][K:bass][F,B,] | [E,B,][E,E] [E,E][E,B,] | .[B,,B,]>=E B,,B,, | %26
[M:11/8] E,3 z z z z z z z2 |] %27
V:3
 x4 | x4 | x4 | x4 | x4 | x3[K:bass] x | x4 | z [B,,B,] z2 |[M:3/8] x3 |[M:1/8] B,, | %10
[M:2/4] z2 [B,,B,]B,, | x4 | [F,B,F][F,F]/-[F,DF]/ [F,F]/-[F,DF]/F, | x4 | x4 | x4 | %16
 [F,B,D][F,D] F,/-[F,D]/[F,E] |[M:3/8] x3 |[M:1/8] x |[M:2/4] x4 | x4 | x4 | x4 | x3[K:bass] x | %24
 x4 | z [B,,B,] z2 |[M:11/8] x11 |] %27
V:4
 x4 | x4 | x4 | x4 | x4 | x4 | x4 | x4 |[M:3/8] x3 |[M:1/8] x |[M:2/4] z2 z D | x4 | x4 | x4 | x4 | %15
 x4 | x4 |[M:3/8] x3 |[M:1/8] x |[M:2/4] x4 | x4 | x4 | x4 | x4 | x4 | x4 |[M:11/8] x11 |] %27

